www/assets/icons/portable_wifi_off.svg

<svg xmlns="http://www.w3.org/2000/svg" width="24" height="24" viewBox="0 0 24 24" fill='currentColor'><path d="M17.56 14.49c.28-.69.44-1.45.44-2.24 0-3.31-2.69-6-6-6-.79 0-1.55.16-2.24.44l1.62 1.62c.2-.03.41-.06.62-.06a4 4 0 0 1 3.95 4.63zM12 4.25c4.42 0 8 3.58 8 8 0 1.35-.35 2.62-.95 3.74l1.47 1.47A9.86 9.86 0 0 0 22 12.25c0-5.52-4.48-10-10-10-1.91 0-3.69.55-5.21 1.47l1.46 1.46c1.12-.59 2.4-.93 3.75-.93m-8.73-1.5L2 4.02l2.1 2.1C2.79 7.82 2 9.94 2 12.25c0 3.7 2.01 6.92 4.99 8.65l1-1.73C5.61 17.78 4 15.21 4 12.25c0-1.76.57-3.38 1.53-4.69L6.96 9c-.6.93-.96 2.05-.96 3.25 0 2.22 1.21 4.15 3 5.19l1-1.74c-1.19-.7-2-1.97-2-3.45 0-.65.17-1.25.44-1.79l1.58 1.58-.02.21c0 1.1.9 2 2 2l.21-.02 7.52 7.52L21 20.48z"/></svg>

<svg width="24" height="24" viewBox="0 0 24 24" xmlns="http://www.w3.org/2000/svg" fill='currentColor'><path d="M17.56 14.49C17.84 13.8 18 13.04 18 12.25C18 8.94 15.31 6.25 12 6.25C11.21 6.25 10.45 6.41 9.76 6.69L11.38 8.31C11.58 8.28 11.79 8.25 12 8.25C14.21 8.25 16 10.04 16 12.25C16 12.46 15.98 12.67 15.95 12.88L17.56 14.49ZM12 4.25C16.42 4.25 20 7.83 20 12.25C20 13.6 19.65 14.87 19.05 15.99L20.52 17.46C21.46 15.94 22 14.16 22 12.25C22 6.73 17.52 2.25 12 2.25C10.09 2.25 8.31 2.8 6.79 3.72L8.25 5.18C9.37 4.59 10.65 4.25 12 4.25ZM3.27 2.75L2 4.02L4.1 6.12C2.79 7.82 2 9.94 2 12.25C2 15.95 4.01 19.17 6.99 20.9L7.99 19.17C5.61 17.78 4 15.21 4 12.25C4 10.49 4.57 8.87 5.53 7.56L6.96 9C6.36 9.93 6 11.05 6 12.25C6 14.47 7.21 16.4 9 17.44L10 15.7C8.81 15 8 13.73 8 12.25C8 11.6 8.17 11 8.44 10.46L10.02 12.04L10 12.25C10 13.35 10.9 14.25 12 14.25L12.21 14.23L19.73 21.75L21 20.48L3.27 2.75Z"/></svg>
